public/static/img/user/lang.svg

<svg width="30" height="30" viewBox="0 0 30 30" fill="none" xmlns="http://www.w3.org/2000/svg">
<circle cx="15" cy="15" r="15" fill="white" fill-opacity="0.1"/>
<path d="M15 23.3334C10.3976 23.3334 6.66667 19.6024 6.66667 15.0001C6.66667 10.3977 10.3976 6.66675 15 6.66675C19.6023 6.66675 23.3333 10.3977 23.3333 15.0001C23.3333 19.6024 19.6023 23.3334 15 23.3334ZM13.0917 21.3896C12.2895 19.6883 11.7978 17.8119 11.6894 15.8334H8.38491C8.715 18.4805 10.597 20.6457 13.0917 21.3896ZM13.3589 15.8334C13.4842 17.8657 14.0648 19.7748 15 21.4601C15.9352 19.7748 16.5157 17.8657 16.6411 15.8334H13.3589ZM21.6151 15.8334H18.3106C18.2022 17.8119 17.7105 19.6883 16.9083 21.3896C19.403 20.6457 21.285 18.4805 21.6151 15.8334ZM8.38491 14.1667H11.6894C11.7978 12.1882 12.2895 10.3118 13.0917 8.61055C10.597 9.35452 8.715 11.5197 8.38491 14.1667ZM13.3589 14.1667H16.6411C16.5157 12.1344 15.9352 10.2253 15 8.54007C14.0648 10.2253 13.4842 12.1344 13.3589 14.1667ZM16.9083 8.61055C17.7105 10.3118 18.2022 12.1882 18.3106 14.1667H21.6151C21.285 11.5197 19.403 9.35452 16.9083 8.61055Z" fill="white"/>
</svg>

<svg width="30" height="30" fill="none" xmlns="http://www.w3.org/2000/svg"><circle cx="15" cy="15" r="15" fill="#fff" fill-opacity=".1"/><path d="M15 23.333a8.333 8.333 0 1 1 0-16.666 8.333 8.333 0 0 1 0 16.666Zm-1.908-1.943a14.917 14.917 0 0 1-1.403-5.557H8.385a6.673 6.673 0 0 0 4.707 5.557Zm.267-5.557A13.254 13.254 0 0 0 15 21.46a13.255 13.255 0 0 0 1.641-5.627H13.36Zm8.256 0h-3.304a14.917 14.917 0 0 1-1.403 5.557 6.674 6.674 0 0 0 4.707-5.557Zm-13.23-1.666h3.304a14.91 14.91 0 0 1 1.403-5.556 6.674 6.674 0 0 0-4.707 5.556Zm4.974 0h3.282A13.254 13.254 0 0 0 15 8.54a13.253 13.253 0 0 0-1.641 5.627Zm3.55-5.556a14.917 14.917 0 0 1 1.402 5.556h3.304a6.674 6.674 0 0 0-4.707-5.556Z" fill="#fff"/></svg>
